X: 3
T: Flute Melody No 3
N: Derived from Flute_Melody_No_3.krn
%%abc-version 2.0
%%abcx-abcm2ps-target-version 5.9.1 (29 Sep 2008)
%%abc-creator hum2abc beta
%%abcx-conversion-date 2019/03/15 08:35:44
%%humdrum-veritas 2289361485
%%humdrum-veritas-data 2989246453
%%linebreak <none>
%%barnumbers 0
L: 1/4
M: 2/4
K: A clef=treble
[K:clef=treble][M:2/4]zA | 
A2 ||  
[M:3/4]A3/z/ a3//e// ||  
[M:2/4]a2 | 
e2- | 
ea | 
e3/f//e// | 
de ||  
[M:3/4]d3/d/ B3//d// ||  
[M:2/4]A2- | 
(Aa/) z/ | 
Ae | 
dB | 
A2 ||  
[M:3/4]A2z ||  
[M:2/4]A2 | 
AA ||  
[M:3/4](A2a/) z/ |]  



